assets/icons/icons8-document.svg

<svg fill="#228BE6" xmlns="http://www.w3.org/2000/svg" viewBox="0 0 50 50" width="100" height="100"><path d="M30 2H7v46h36V15ZM15 28h16v2H15Zm20 8H15v-2h20Zm0-12H15v-2h20Zm-5-9V4l11 11Z"/></svg>

<svg fill="#228BE6" xmlns="http://www.w3.org/2000/svg"  viewBox="0 0 50 50" width="100px" height="100px"><path d="M 30.398438 2 L 7 2 L 7 48 L 43 48 L 43 14.601563 Z M 15 28 L 31 28 L 31 30 L 15 30 Z M 35 36 L 15 36 L 15 34 L 35 34 Z M 35 24 L 15 24 L 15 22 L 35 22 Z M 30 15 L 30 4.398438 L 40.601563 15 Z"/></svg>
